Front/img/common-section_why/icn-6.svg

<svg width="40" height="40" viewBox="0 0 40 40" fill="none" xmlns="http://www.w3.org/2000/svg">
<path d="M19.9766 25.0469V32.1884" stroke="#00181B" stroke-width="1.5" stroke-linecap="round" stroke-linejoin="round"/>
<path d="M33.7005 6.71875L36.1818 6.7188C37.1082 6.7188 37.9189 7.6027 37.9189 8.61287V13.2849C37.9189 20.1035 31.9147 21.5607 28.793 21.5607" stroke="#FF8139" stroke-width="1.5" stroke-linecap="round" stroke-linejoin="round"/>
<path d="M6.29554 6.71875L3.81434 6.7188C2.88787 6.7188 2.07721 7.6027 2.07721 8.61287V13.2849C2.07721 20.1035 8.08142 21.5607 11.2031 21.5607" stroke="#FF8139" stroke-width="1.5" stroke-linecap="round" stroke-linejoin="round"/>
<path d="M27.447 39.041C26.2801 35.4117 23.3631 32.9922 19.9793 32.9922C16.5956 32.9922 13.6785 35.4117 12.5117 39.041H27.447Z" stroke="#00181B" stroke-width="1.5" stroke-linecap="round" stroke-linejoin="round"/>
<line x1="7.38672" y1="39.25" x2="32.5669" y2="39.25" stroke="#00181B" stroke-width="1.5" stroke-linecap="round" stroke-linejoin="round"/>
<path d="M13.854 2.64062L22.5645 2.71482L31.2751 2.78902C32.3639 2.78902 33.3166 3.8278 33.3166 5.01498V10.5057C33.3166 18.5191 27.3281 25.0486 19.9786 25.0486C12.6291 25.0486 6.64062 18.5191 6.64062 10.5057V4.86658C6.64062 3.67941 7.59334 2.64062 8.68215 2.64062H13.854Z" stroke="#00181B" stroke-width="1.5" stroke-linecap="round" stroke-linejoin="round"/>
</svg>

<svg xmlns="http://www.w3.org/2000/svg" fill="none" viewBox="0 0 40 40"><path stroke="#00181B" stroke-linecap="round" stroke-linejoin="round" stroke-width="1.5" d="M19.977 25.047v7.141"/><path stroke="#FF8139" stroke-linecap="round" stroke-linejoin="round" stroke-width="1.5" d="M33.7 6.719h2.482c.926 0 1.737.884 1.737 1.894v4.672c0 6.819-6.004 8.276-9.126 8.276M6.296 6.719H3.814c-.926 0-1.737.884-1.737 1.894v4.672c0 6.819 6.004 8.276 9.126 8.276"/><path stroke="#00181B" stroke-linecap="round" stroke-linejoin="round" stroke-width="1.5" d="M27.447 39.041c-1.167-3.63-4.084-6.049-7.468-6.049-3.383 0-6.3 2.42-7.467 6.049h14.935zM7.387 39.25h25.18M13.854 2.64l8.71.075 8.711.074c1.089 0 2.042 1.039 2.042 2.226v5.49c0 8.014-5.989 14.544-13.338 14.544-7.35 0-13.338-6.53-13.338-14.543v-5.64c0-1.187.952-2.225 2.041-2.225h5.172z"/></svg>
